src/icons/odin.svg

<svg
  clip-rule="evenodd"
  fill-rule="evenodd"
  stroke-linejoin="round"
  stroke-miterlimit="2"
  viewBox="0 0 260 260"
  xml:space="preserve"
  xmlns="http://www.w3.org/2000/svg"
>
  <path
    d="M73.123 212.264a98.713 98.713 0 0 1-6.865-5.18l98.605-170.789s4.059 1.506 7.412 3.113c4.226 2.026 7.726 4 7.726 4 47.796 27.596 64.198 88.805 36.602 136.6-27.595 47.798-88.804 64.198-136.6 36.603 0 0-3.347-1.924-6.879-4.346zm98.545-154.422L88.336 202.177c39.831 22.997 90.838 9.329 113.834-30.5 22.995-39.832 9.33-90.838-30.5-113.835zM47.944 187.19c-3.35-4.852-4.543-7.18-4.543-7.18-17.227-29.922-18.49-67.972 0-100s52.075-49.958 86.603-50c0 0 4.661-.011 8.543.36 5.847.56 9.735 1.315 9.735 1.315L53.986 195.011s-2.237-2.316-6.04-7.82zm72.084-139.903c-25.13 3.054-48.573 17.467-62.193 41.058-13.62 23.589-14.378 51.098-4.459 74.39z"
    fill="#448aff"
  />
</svg>

<svg viewBox="0 0 260 260" xmlns="http://www.w3.org/2000/svg">
  <path
    d="M73.123 212.264C70.7605 210.638 68.47 208.91 66.258 207.084L164.863 36.295C164.863 36.295 168.922 37.801 172.275 39.408C176.501 41.434 180.001 43.408 180.001 43.408C227.797 71.004 244.199 132.213 216.603 180.008C189.008 227.806 127.799 244.206 80.003 216.611C80.003 216.611 76.656 214.687 73.124 212.265L73.123 212.264ZM171.668 57.842L88.336 202.177C128.167 225.174 179.174 211.506 202.17 171.677C225.165 131.845 211.5 80.839 171.67 57.842H171.668ZM47.944 187.19C44.594 182.338 43.401 180.01 43.401 180.01C26.174 150.088 24.911 112.038 43.401 80.01C61.891 47.982 95.476 30.052 130.004 30.01C130.004 30.01 134.665 29.999 138.547 30.37C144.394 30.93 148.282 31.685 148.282 31.685L53.986 195.011C53.986 195.011 51.749 192.695 47.946 187.191L47.944 187.19ZM120.028 47.287C94.898 50.341 71.455 64.754 57.835 88.345C44.215 111.934 43.457 139.443 53.376 162.735L120.028 47.287Z"
    fill="#448AFF"
  />
</svg>
